IMG/ICON/download-solid.svg

<svg width="512" height="512" viewBox="0 0 512 512" fill="none" xmlns="http://www.w3.org/2000/svg">
<g clip-path="url(#clip0_248_2)">
<path d="M288 32C288 14.3 273.7 0 256 0C238.3 0 224 14.3 224 32V274.7L150.6 201.3C138.1 188.8 117.8 188.8 105.3 201.3C92.8 213.8 92.8 234.1 105.3 246.6L233.3 374.6C245.8 387.1 266.1 387.1 278.6 374.6L406.6 246.6C419.1 234.1 419.1 213.8 406.6 201.3C394.1 188.8 373.8 188.8 361.3 201.3L288 274.7V32ZM64 352C28.7 352 0 380.7 0 416V448C0 483.3 28.7 512 64 512H448C483.3 512 512 483.3 512 448V416C512 380.7 483.3 352 448 352H346.5L301.2 397.3C276.2 422.3 235.7 422.3 210.7 397.3L165.5 352H64ZM432 408C438.365 408 444.47 410.529 448.971 415.029C453.471 419.53 456 425.635 456 432C456 438.365 453.471 444.47 448.971 448.971C444.47 453.471 438.365 456 432 456C425.635 456 419.53 453.471 415.029 448.971C410.529 444.47 408 438.365 408 432C408 425.635 410.529 419.53 415.029 415.029C419.53 410.529 425.635 408 432 408Z" fill="white"/>
</g>
<defs>
<clipPath id="clip0_248_2">
<rect width="512" height="512" fill="white"/>
</clipPath>
</defs>
</svg>

<svg xmlns="http://www.w3.org/2000/svg" viewBox="0 0 512 512"><!--!Font Awesome Free 6.6.0 by @fontawesome - https://fontawesome.com License - https://fontawesome.com/license/free Copyright 2024 Fonticons, Inc.--><path d="M288 32c0-17.7-14.3-32-32-32s-32 14.3-32 32l0 242.7-73.4-73.4c-12.5-12.5-32.8-12.5-45.3 0s-12.5 32.8 0 45.3l128 128c12.5 12.5 32.8 12.5 45.3 0l128-128c12.5-12.5 12.5-32.8 0-45.3s-32.8-12.5-45.3 0L288 274.7 288 32zM64 352c-35.3 0-64 28.7-64 64l0 32c0 35.3 28.7 64 64 64l384 0c35.3 0 64-28.7 64-64l0-32c0-35.3-28.7-64-64-64l-101.5 0-45.3 45.3c-25 25-65.5 25-90.5 0L165.5 352 64 352zm368 56a24 24 0 1 1 0 48 24 24 0 1 1 0-48z"/></svg>
